metawallet-ui/public/i/icons/round-logout.svg

<svg width="22" height="22" viewBox="0 0 22 22" fill="none" xmlns="http://www.w3.org/2000/svg">
<path d="M22 11C22 17.0751 17.0751 22 11 22C4.92487 22 0 17.0751 0 11C0 4.92487 4.92487 0 11 0C17.0751 0 22 4.92487 22 11Z" fill="#99CEFF"/>
<path d="M14.9145 15.1337C14.8028 15.1337 14.6963 15.1017 14.6005 15.0326C14.3611 14.857 14.3079 14.5271 14.4835 14.2877L16.8086 11.0899L14.4835 7.8922C14.3132 7.65277 14.3611 7.32289 14.6005 7.14731C14.84 6.97172 15.1699 7.02493 15.3454 7.26436L17.8994 10.776C18.0324 10.9622 18.0324 11.2176 17.8994 11.4039L15.3454 14.9155C15.2444 15.0592 15.0794 15.1337 14.9145 15.1337Z" fill="white"/>
<path d="M17.468 11.622H10.8651C10.5724 11.622 10.333 11.3826 10.333 11.0899C10.333 10.7973 10.5724 10.5579 10.8651 10.5579H17.468C17.7606 10.5579 18.0001 10.7973 18.0001 11.0899C18.0001 11.3826 17.766 11.622 17.468 11.622Z" fill="white"/>
<path d="M6.41195 17.2886C6.11931 17.2886 5.87988 17.0491 5.87988 16.7565V5.42343C5.87988 5.13079 6.11931 4.89136 6.41195 4.89136C6.70459 4.89136 6.94402 5.13079 6.94402 5.42343V16.7565C6.94402 17.0491 6.70991 17.2886 6.41195 17.2886Z" fill="white"/>
<path d="M13.5359 17.2885H6.41683C6.1242 17.2885 5.88477 17.0491 5.88477 16.7564C5.88477 16.4638 6.1242 16.2244 6.41683 16.2244H13.5359C13.8285 16.2244 14.0679 16.4638 14.0679 16.7564C14.0679 17.0491 13.8285 17.2885 13.5359 17.2885Z" fill="white"/>
<path d="M13.5359 5.9555H6.41683C6.1242 5.9555 5.88477 5.71606 5.88477 5.42343C5.88477 5.13079 6.1242 4.89136 6.41683 4.89136H13.5359C13.8285 4.89136 14.0679 5.13079 14.0679 5.42343C14.0679 5.71606 13.8285 5.9555 13.5359 5.9555Z" fill="white"/>
</svg>

<svg width="22" height="22" fill="none" xmlns="http://www.w3.org/2000/svg"><path d="M22 11c0 6.075-4.925 11-11 11S0 17.075 0 11 4.925 0 11 0s11 4.925 11 11z" fill="#99CEFF"/><path d="M14.915 15.134a.53.53 0 0 1-.431-.846l2.325-3.198-2.326-3.198a.535.535 0 0 1 .117-.745.53.53 0 0 1 .745.117l2.554 3.512a.544.544 0 0 1 0 .628l-2.554 3.511a.524.524 0 0 1-.43.219z" fill="#fff"/><path d="M17.468 11.622h-6.603a.534.534 0 0 1-.532-.532c0-.293.24-.532.532-.532h6.603c.293 0 .532.24.532.532a.53.53 0 0 1-.532.532zM6.412 17.289a.534.534 0 0 1-.532-.533V5.423c0-.292.24-.532.532-.532.293 0 .532.24.532.532v11.333a.53.53 0 0 1-.532.533z" fill="#fff"/><path d="M13.536 17.288h-7.12a.534.534 0 0 1-.531-.532c0-.292.24-.532.532-.532h7.119c.293 0 .532.24.532.532 0 .293-.24.532-.532.532zm0-11.332h-7.12a.534.534 0 0 1-.531-.533c0-.292.24-.532.532-.532h7.119c.293 0 .532.24.532.532 0 .293-.24.532-.532.532z" fill="#fff"/></svg>
